svg/color/babywkd.svg

<?xml version="1.0" encoding="UTF-8" ?>
<!DOCTYPE svg PUBLIC "-//W3C//DTD SVG 1.1//EN" "http://www.w3.org/Graphics/SVG/1.1/DTD/svg11.dtd">
<svg width="250pt" height="250pt" viewBox="0 0 250 250" version="1.1" xmlns="http://www.w3.org/2000/svg">
<g id="#ffffffff">
<path fill="#ffffff" opacity="1.00" d=" M 0.00 0.00 L 112.62 0.00 C 104.57 1.91 96.33 2.98 88.42 5.47 C 57.32 14.99 29.93 37.00 14.99 66.01 C 9.62 67.86 4.38 70.27 0.00 73.94 L 0.00 0.00 Z" />
<path fill="#ffffff" opacity="1.00" d=" M 137.41 0.00 L 250.00 0.00 L 250.00 112.61 C 248.59 106.32 247.28 100.01 246.24 93.65 C 247.67 87.15 249.36 80.65 249.73 73.97 C 245.32 70.44 240.21 67.96 234.90 66.11 C 233.85 63.88 232.74 61.67 231.49 59.54 C 215.51 33.35 189.46 13.55 160.01 5.01 C 152.60 2.81 144.91 1.82 137.41 0.00 Z" />
<path fill="#ffffff" opacity="1.00" d=" M 4.14 76.19 C 18.17 75.01 32.42 80.77 42.00 91.02 C 48.77 98.17 52.94 107.50 54.67 117.13 C 50.15 122.07 44.56 126.28 41.61 132.44 C 39.54 136.96 38.54 141.91 38.11 146.85 C 35.25 144.73 32.92 142.02 30.65 139.32 C 15.80 121.59 5.72 99.38 4.14 76.19 Z" />
<path fill="#ffffff" opacity="1.00" d=" M 199.96 101.97 C 208.25 85.29 227.02 74.43 245.67 76.22 C 243.73 98.09 234.90 119.15 221.39 136.38 C 218.81 139.48 216.10 142.47 213.51 145.55 C 213.03 145.62 212.07 145.77 211.59 145.84 C 210.60 140.80 209.81 135.56 207.18 131.06 C 204.15 125.84 199.53 121.86 195.44 117.52 C 195.13 112.04 197.74 106.85 199.96 101.97 Z" />
<path fill="#ffffff" opacity="1.00" d=" M 0.00 77.41 C 0.93 83.26 2.29 89.04 3.65 94.80 C 2.56 100.75 1.30 106.67 0.00 112.58 L 0.00 77.41 Z" />
<path fill="#ffffff" opacity="1.00" d=" M 79.47 137.42 C 81.67 136.92 84.48 137.08 85.45 139.50 C 85.81 141.43 86.01 144.21 83.83 145.13 C 81.67 146.40 78.14 145.63 77.41 142.98 C 77.15 141.01 77.01 137.98 79.47 137.42 Z" />
<path fill="#ffffff" opacity="1.00" d=" M 166.50 137.52 C 168.36 137.05 170.28 137.44 172.14 137.68 C 172.60 139.59 174.25 141.77 172.57 143.54 C 171.02 147.24 164.16 146.14 164.48 141.89 C 164.18 140.11 165.12 138.55 166.50 137.52 Z" />
<path fill="#ffffff" opacity="1.00" d=" M 0.00 137.36 C 1.23 142.64 1.93 148.02 3.04 153.32 C 6.93 168.70 13.38 183.47 22.49 196.49 C 38.92 220.18 63.83 237.72 91.60 245.41 C 98.78 247.67 106.27 248.62 113.64 250.00 L 0.00 250.00 L 0.00 137.36 Z" />
<path fill="#ffffff" opacity="1.00" d=" M 247.65 148.74 C 248.33 144.94 249.18 141.18 250.00 137.42 L 250.00 250.00 L 136.33 250.00 C 156.05 247.29 175.46 241.15 192.24 230.27 C 220.79 212.17 241.53 182.03 247.65 148.74 Z" />
<path fill="#ffffff" opacity="1.00" d=" M 118.30 183.43 C 121.96 180.90 127.00 180.55 130.64 183.33 C 130.89 184.22 131.15 185.11 131.40 186.01 C 129.49 188.92 127.40 191.71 125.04 194.28 C 122.10 191.20 117.78 188.24 118.30 183.43 Z" />
<path fill="#ffffff" opacity="1.00" d=" M 113.33 200.13 C 114.71 199.96 116.09 199.76 117.46 199.52 C 116.26 201.41 114.99 203.27 113.71 205.12 C 113.57 203.45 113.46 201.79 113.33 200.13 Z" />
<path fill="#ffffff" opacity="1.00" d=" M 131.81 200.08 C 133.11 200.20 134.42 200.28 135.74 200.32 C 135.63 201.91 135.54 203.51 135.44 205.11 C 134.18 203.47 132.94 201.81 131.81 200.08 Z" />
</g>
<g id="#fcdd81ff">
<path fill="#fcdd81" opacity="1.00" d=" M 112.62 0.00 L 137.41 0.00 C 144.91 1.82 152.60 2.81 160.01 5.01 C 189.46 13.55 215.51 33.35 231.49 59.54 C 232.74 61.67 233.85 63.88 234.90 66.11 C 216.93 60.50 197.98 59.02 179.28 58.26 C 174.11 56.67 169.75 53.11 164.54 51.53 C 152.79 47.63 140.14 48.36 127.99 49.38 C 123.65 49.66 119.32 49.24 115.00 48.82 C 101.49 48.08 86.97 48.53 75.26 56.18 C 71.14 59.32 65.81 58.29 61.00 58.62 C 45.51 59.80 29.90 61.38 14.99 66.01 C 29.93 37.00 57.32 14.99 88.42 5.47 C 96.33 2.98 104.57 1.91 112.62 0.00 Z" />
<path fill="#fcdd81" opacity="1.00" d=" M 213.39 150.36 C 229.08 134.78 240.50 115.01 246.24 93.65 C 247.28 100.01 248.59 106.32 250.00 112.61 L 250.00 137.42 C 249.18 141.18 248.33 144.94 247.65 148.74 C 241.53 182.03 220.79 212.17 192.24 230.27 C 175.46 241.15 156.05 247.29 136.33 250.00 L 113.64 250.00 C 106.27 248.62 98.78 247.67 91.60 245.41 C 63.83 237.72 38.92 220.18 22.49 196.49 C 13.38 183.47 6.93 168.70 3.04 153.32 C 1.93 148.02 1.23 142.64 0.00 137.36 L 0.00 112.58 C 1.30 106.67 2.56 100.75 3.65 94.80 C 9.50 115.81 20.86 135.26 36.50 150.49 C 38.84 152.40 38.96 155.55 39.48 158.30 C 41.11 168.91 45.11 179.13 50.90 188.16 C 60.07 202.88 74.89 213.66 91.29 218.96 C 95.33 219.64 97.66 223.00 100.10 225.91 C 106.37 232.73 115.81 236.14 125.00 235.56 C 133.45 236.05 142.10 233.14 148.14 227.14 C 151.16 224.43 153.27 220.33 157.51 219.35 C 165.75 216.70 173.61 212.83 180.50 207.57 C 195.67 196.48 205.99 179.38 209.72 161.05 C 210.59 157.40 210.20 152.98 213.39 150.36 Z" />
<path fill="#fcdd81" opacity="1.00" d=" M 89.25 130.11 C 96.05 131.24 102.25 135.19 106.20 140.82 C 107.30 142.28 106.64 144.27 105.48 145.48 C 101.65 150.11 97.17 154.64 91.25 156.42 C 82.38 159.51 72.71 156.43 65.04 151.65 C 67.49 146.99 70.68 142.69 74.29 138.87 C 75.15 142.79 75.41 147.46 78.90 150.09 C 85.13 155.43 97.15 150.54 96.73 142.00 C 97.04 136.83 92.79 133.18 89.25 130.11 Z" />
<path fill="#fcdd81" opacity="1.00" d=" M 143.69 140.72 C 147.83 135.23 153.93 131.10 160.82 130.12 C 157.56 133.10 153.70 136.38 153.40 141.12 C 152.49 150.03 165.45 156.11 171.73 149.72 C 174.74 146.98 175.31 142.76 175.80 138.94 C 179.34 142.99 182.90 147.31 184.88 152.36 C 177.49 156.25 169.06 159.11 160.67 157.06 C 153.86 155.18 148.21 150.38 144.34 144.59 C 143.58 143.50 142.88 141.97 143.69 140.72 Z" />
</g>
<g id="#050505ff">
<path fill="#050505" opacity="1.00" d=" M 75.26 56.18 C 86.97 48.53 101.49 48.08 115.00 48.82 C 119.32 49.24 123.65 49.66 127.99 49.38 C 140.14 48.36 152.79 47.63 164.54 51.53 C 169.75 53.11 174.11 56.67 179.28 58.26 C 197.98 59.02 216.93 60.50 234.90 66.11 C 240.21 67.96 245.32 70.44 249.73 73.97 C 249.36 80.65 247.67 87.15 246.24 93.65 C 240.50 115.01 229.08 134.78 213.39 150.36 C 210.20 152.98 210.59 157.40 209.72 161.05 C 205.99 179.38 195.67 196.48 180.50 207.57 C 173.61 212.83 165.75 216.70 157.51 219.35 C 153.27 220.33 151.16 224.43 148.14 227.14 C 142.10 233.14 133.45 236.05 125.00 235.56 C 115.81 236.14 106.37 232.73 100.10 225.91 C 97.66 223.00 95.33 219.64 91.29 218.96 C 74.89 213.66 60.07 202.88 50.90 188.16 C 45.11 179.13 41.11 168.91 39.48 158.30 C 38.96 155.55 38.84 152.40 36.50 150.49 C 20.86 135.26 9.50 115.81 3.65 94.80 C 2.29 89.04 0.93 83.26 0.00 77.41 L 0.00 73.94 C 4.38 70.27 9.62 67.86 14.99 66.01 C 29.90 61.38 45.51 59.80 61.00 58.62 C 65.81 58.29 71.14 59.32 75.26 56.18 M 4.14 76.19 C 5.72 99.38 15.80 121.59 30.65 139.32 C 32.92 142.02 35.25 144.73 38.11 146.85 C 38.54 141.91 39.54 136.96 41.61 132.44 C 44.56 126.28 50.15 122.07 54.67 117.13 C 52.94 107.50 48.77 98.17 42.00 91.02 C 32.42 80.77 18.17 75.01 4.14 76.19 M 199.96 101.97 C 197.74 106.85 195.13 112.04 195.44 117.52 C 199.53 121.86 204.15 125.84 207.18 131.06 C 209.81 135.56 210.60 140.80 211.59 145.84 C 212.07 145.77 213.03 145.62 213.51 145.55 C 216.10 142.47 218.81 139.48 221.39 136.38 C 234.90 119.15 243.73 98.09 245.67 76.22 C 227.02 74.43 208.25 85.29 199.96 101.97 M 89.25 130.11 C 92.79 133.18 97.04 136.83 96.73 142.00 C 97.15 150.54 85.13 155.43 78.90 150.09 C 75.41 147.46 75.15 142.79 74.29 138.87 C 70.68 142.69 67.49 146.99 65.04 151.65 C 72.71 156.43 82.38 159.51 91.25 156.42 C 97.17 154.64 101.65 150.11 105.48 145.48 C 106.64 144.27 107.30 142.28 106.20 140.82 C 102.25 135.19 96.05 131.24 89.25 130.11 M 143.69 140.72 C 142.88 141.97 143.58 143.50 144.34 144.59 C 148.21 150.38 153.86 155.18 160.67 157.06 C 169.06 159.11 177.49 156.25 184.88 152.36 C 182.90 147.31 179.34 142.99 175.80 138.94 C 175.31 142.76 174.74 146.98 171.73 149.72 C 165.45 156.11 152.49 150.03 153.40 141.12 C 153.70 136.38 157.56 133.10 160.82 130.12 C 153.93 131.10 147.83 135.23 143.69 140.72 M 79.47 137.42 C 77.01 137.98 77.15 141.01 77.41 142.98 C 78.14 145.63 81.67 146.40 83.83 145.13 C 86.01 144.21 85.81 141.43 85.45 139.50 C 84.48 137.08 81.67 136.92 79.47 137.42 M 166.50 137.52 C 165.12 138.55 164.18 140.11 164.48 141.89 C 164.16 146.14 171.02 147.24 172.57 143.54 C 174.25 141.77 172.60 139.59 172.14 137.68 C 170.28 137.44 168.36 137.05 166.50 137.52 M 130.64 183.33 C 127.00 180.55 121.96 180.90 118.30 183.43 C 115.63 181.32 113.03 179.05 109.97 177.51 C 107.54 178.04 105.49 180.18 104.13 182.20 C 102.57 187.92 103.32 194.89 107.91 199.07 C 109.36 200.43 111.49 200.34 113.33 200.13 C 113.46 201.79 113.57 203.45 113.71 205.12 C 114.99 203.27 116.26 201.41 117.46 199.52 C 120.00 198.99 122.34 197.45 125.00 197.56 C 127.40 197.98 129.52 199.29 131.81 200.08 C 132.94 201.81 134.18 203.47 135.44 205.11 C 135.54 203.51 135.63 201.91 135.74 200.32 C 138.00 200.28 140.67 199.99 141.93 197.84 C 143.57 195.27 146.92 193.40 146.59 189.98 C 147.19 185.06 144.23 180.42 140.39 177.59 C 136.19 176.62 134.31 182.12 130.64 183.33 M 121.26 200.48 C 122.00 201.83 122.67 203.23 123.56 204.50 C 126.40 205.39 128.14 202.94 129.01 200.63 C 126.42 200.61 123.84 200.59 121.26 200.48 M 116.92 205.21 C 119.06 207.48 121.57 210.09 125.01 209.53 C 128.11 209.83 130.39 207.49 132.13 205.26 C 127.19 207.15 121.85 207.11 116.92 205.21 Z" />
<path fill="#050505" opacity="1.00" d=" M 140.25 182.46 C 141.49 181.22 143.67 183.16 142.25 184.41 C 141.02 185.68 138.71 183.68 140.25 182.46 Z" />
<path fill="#050505" opacity="1.00" d=" M 108.14 183.22 C 109.76 182.69 110.31 183.25 109.79 184.87 C 108.16 185.40 107.61 184.84 108.14 183.22 Z" />
<path fill="#050505" opacity="1.00" d=" M 142.12 185.43 C 143.43 184.09 145.82 186.09 144.39 187.50 C 143.12 188.88 140.53 186.79 142.12 185.43 Z" />
<path fill="#050505" opacity="1.00" d=" M 106.16 186.22 C 107.59 185.04 109.41 187.52 107.82 188.51 C 106.40 189.64 104.61 187.22 106.16 186.22 Z" />
<path fill="#050505" opacity="1.00" d=" M 137.41 187.13 C 138.41 185.53 140.83 187.39 139.68 188.82 C 138.66 190.37 136.29 188.54 137.41 187.13 Z" />
<path fill="#050505" opacity="1.00" d=" M 140.55 190.19 C 141.82 188.57 144.27 191.12 142.67 192.38 C 141.29 193.71 139.27 191.54 140.55 190.19 Z" />
</g>
<g id="#f08820ff">
<path fill="#f08820" opacity="1.00" d=" M 130.64 183.33 C 134.31 182.12 136.19 176.62 140.39 177.59 C 144.23 180.42 147.19 185.06 146.59 189.98 C 146.92 193.40 143.57 195.27 141.93 197.84 C 140.67 199.99 138.00 200.28 135.74 200.32 C 134.42 200.28 133.11 200.20 131.81 200.08 C 129.52 199.29 127.40 197.98 125.00 197.56 C 122.34 197.45 120.00 198.99 117.46 199.52 C 116.09 199.76 114.71 199.96 113.33 200.13 C 111.49 200.34 109.36 200.43 107.91 199.07 C 103.32 194.89 102.57 187.92 104.13 182.20 C 105.49 180.18 107.54 178.04 109.97 177.51 C 113.03 179.05 115.63 181.32 118.30 183.43 C 117.78 188.24 122.10 191.20 125.04 194.28 C 127.40 191.71 129.49 188.92 131.40 186.01 C 131.15 185.11 130.89 184.22 130.64 183.33 M 140.25 182.46 C 138.71 183.68 141.02 185.68 142.25 184.41 C 143.67 183.16 141.49 181.22 140.25 182.46 M 108.14 183.22 C 107.61 184.84 108.16 185.40 109.79 184.87 C 110.31 183.25 109.76 182.69 108.14 183.22 M 142.12 185.43 C 140.53 186.79 143.12 188.88 144.39 187.50 C 145.82 186.09 143.43 184.09 142.12 185.43 M 106.16 186.22 C 104.61 187.22 106.40 189.64 107.82 188.51 C 109.41 187.52 107.59 185.04 106.16 186.22 M 137.41 187.13 C 136.29 188.54 138.66 190.37 139.68 188.82 C 140.83 187.39 138.41 185.53 137.41 187.13 M 140.55 190.19 C 139.27 191.54 141.29 193.71 142.67 192.38 C 144.27 191.12 141.82 188.57 140.55 190.19 Z" />
<path fill="#f08820" opacity="1.00" d=" M 121.26 200.48 C 123.84 200.59 126.42 200.61 129.01 200.63 C 128.14 202.94 126.40 205.39 123.56 204.50 C 122.67 203.23 122.00 201.83 121.26 200.48 Z" />
<path fill="#f08820" opacity="1.00" d=" M 116.92 205.21 C 121.85 207.11 127.19 207.15 132.13 205.26 C 130.39 207.49 128.11 209.83 125.01 209.53 C 121.57 210.09 119.06 207.48 116.92 205.21 Z" />
</g>
</svg>

<?xml version="1.0" encoding="utf-8"?>
<!-- Generator: Adobe Illustrator 26.0.3, SVG Export Plug-In . SVG Version: 6.00 Build 0)  -->
<svg version="1.1" id="Layer_1" xmlns="http://www.w3.org/2000/svg" xmlns:xlink="http://www.w3.org/1999/xlink" x="0px" y="0px"
	 viewBox="0 0 250 250" style="enable-background:new 0 0 250 250;" xml:space="preserve">
<style type="text/css">
	.st0{fill:#FFFFFF;}
	.st1{fill:#FCDD81;}
	.st2{fill:#050505;}
	.st3{fill:#F08820;}
</style>
<g id="_x23_ffffffff">
	<path class="st0" d="M4.1,76.2C18.2,75,32.4,80.8,42,91c6.8,7.2,10.9,16.5,12.7,26.1c-4.5,4.9-10.1,9.2-13.1,15.3
		c-2.1,4.5-3.1,9.5-3.5,14.4c-2.9-2.1-5.2-4.8-7.5-7.5C15.8,121.6,5.7,99.4,4.1,76.2z"/>
	<path class="st0" d="M200,102c8.3-16.7,27.1-27.5,45.7-25.8c-1.9,21.9-10.8,42.9-24.3,60.2c-2.6,3.1-5.3,6.1-7.9,9.2
		c-0.5,0.1-1.4,0.2-1.9,0.3c-1-5-1.8-10.3-4.4-14.8c-3-5.2-7.6-9.2-11.7-13.5C195.1,112,197.7,106.8,200,102z"/>
	<path class="st0" d="M0,77.4C0.9,83.3,2.3,89,3.7,94.8c-1.1,5.9-2.4,11.9-3.7,17.8V77.4z"/>
	<path class="st0" d="M79.5,137.4c2.2-0.5,5-0.3,6,2.1c0.4,1.9,0.6,4.7-1.6,5.6c-2.2,1.3-5.7,0.5-6.4-2.2
		C77.2,141,77,138,79.5,137.4z"/>
	<path class="st0" d="M166.5,137.5c1.9-0.5,3.8-0.1,5.6,0.2c0.5,1.9,2.1,4.1,0.4,5.9c-1.6,3.7-8.4,2.6-8.1-1.6
		C164.2,140.1,165.1,138.6,166.5,137.5z"/>
	<path class="st0" d="M118.3,183.4c3.7-2.5,8.7-2.9,12.3-0.1c0.2,0.9,0.5,1.8,0.8,2.7c-1.9,2.9-4,5.7-6.4,8.3
		C122.1,191.2,117.8,188.2,118.3,183.4z"/>
	<path class="st0" d="M113.3,200.1c1.4-0.2,2.8-0.4,4.1-0.6c-1.2,1.9-2.5,3.8-3.8,5.6C113.6,203.4,113.5,201.8,113.3,200.1z"/>
	<path class="st0" d="M131.8,200.1c1.3,0.1,2.6,0.2,3.9,0.2c-0.1,1.6-0.2,3.2-0.3,4.8C134.2,203.5,132.9,201.8,131.8,200.1z"/>
</g>
<g id="_x23_fcdd81ff">
	<path class="st1" d="M112.6,0h24.8c7.5,1.8,15.2,2.8,22.6,5c29.5,8.5,55.5,28.3,71.5,54.5c1.2,2.1,2.4,4.3,3.4,6.6
		c-18-5.6-36.9-7.1-55.6-7.9c-5.2-1.6-9.5-5.1-14.7-6.7c-11.8-3.9-24.4-3.2-36.5-2.1c-4.3,0.3-8.7-0.1-13-0.6
		c-13.5-0.7-28-0.3-39.7,7.4c-4.1,3.1-9.5,2.1-14.3,2.4c-15.5,1.2-31.1,2.8-46,7.4C29.9,37,57.3,15,88.4,5.5
		C96.3,3,104.6,1.9,112.6,0z"/>
	<path class="st1" d="M213.4,150.4c15.7-15.6,27.1-35.3,32.9-56.7c1,6.4,2.3,12.7,3.8,19v24.8c-0.8,3.8-1.7,7.5-2.4,11.3
		c-6.1,33.3-26.9,63.4-55.4,81.5c-16.8,10.9-36.2,17-55.9,19.7h-22.7c-7.4-1.4-14.9-2.3-22-4.6c-27.8-7.7-52.7-25.2-69.1-48.9
		c-9.1-13-15.6-27.8-19.5-43.2c-1.1-5.3-1.8-10.7-3-16v-24.8c1.3-5.9,2.6-11.8,3.7-17.8c5.8,21,17.2,40.5,32.8,55.7
		c2.3,1.9,2.5,5.1,3,7.8c1.6,10.6,5.6,20.8,11.4,29.9c9.2,14.7,24,25.5,40.4,30.8c4,0.7,6.4,4,8.8,6.9c6.3,6.8,15.7,10.2,24.9,9.6
		c8.4,0.5,17.1-2.4,23.1-8.4c3-2.7,5.1-6.8,9.4-7.8c8.2-2.7,16.1-6.5,23-11.8c15.2-11.1,25.5-28.2,29.2-46.5
		C210.6,157.4,210.2,153,213.4,150.4z"/>
	<path class="st1" d="M89.2,130.1c6.8,1.1,13,5.1,16.9,10.7c1.1,1.5,0.4,3.4-0.7,4.7c-3.8,4.6-8.3,9.2-14.2,10.9
		c-8.9,3.1-18.5,0-26.2-4.8c2.4-4.7,5.6-9,9.2-12.8c0.9,3.9,1.1,8.6,4.6,11.2c6.2,5.3,18.2,0.4,17.8-8.1
		C97,136.8,92.8,133.2,89.2,130.1z"/>
	<path class="st1" d="M143.7,140.7c4.1-5.5,10.2-9.6,17.1-10.6c-3.3,3-7.1,6.3-7.4,11c-0.9,8.9,12.1,15,18.3,8.6
		c3-2.7,3.6-7,4.1-10.8c3.5,4.1,7.1,8.4,9.1,13.4c-7.4,3.9-15.8,6.8-24.2,4.7c-6.8-1.9-12.5-6.7-16.3-12.5
		C143.6,143.5,142.9,142,143.7,140.7z"/>
</g>
<g id="_x23_050505ff">
	<path class="st2" d="M75.3,56.2c11.7-7.7,26.2-8.1,39.7-7.4c4.3,0.4,8.7,0.8,13,0.6c12.2-1,24.8-1.8,36.5,2.1
		c5.2,1.6,9.6,5.1,14.7,6.7c18.7,0.8,37.6,2.2,55.6,7.9c5.3,1.8,10.4,4.3,14.8,7.9c-0.4,6.7-2.1,13.2-3.5,19.7
		c-5.7,21.4-17.2,41.1-32.9,56.7c-3.2,2.6-2.8,7-3.7,10.7c-3.7,18.3-14.1,35.4-29.2,46.5c-6.9,5.3-14.8,9.1-23,11.8
		c-4.2,1-6.3,5.1-9.4,7.8c-6,6-14.7,8.9-23.1,8.4c-9.2,0.6-18.6-2.8-24.9-9.6c-2.4-2.9-4.8-6.3-8.8-6.9
		c-16.4-5.3-31.2-16.1-40.4-30.8c-5.8-9-9.8-19.2-11.4-29.9c-0.5-2.8-0.6-5.9-3-7.8c-15.6-15.2-27-34.7-32.8-55.7
		C2.3,89,0.9,83.3,0,77.4v-3.5c4.4-3.7,9.6-6.1,15-7.9c14.9-4.6,30.5-6.2,46-7.4C65.8,58.3,71.1,59.3,75.3,56.2 M4.1,76.2
		c1.6,23.2,11.7,45.4,26.5,63.1c2.3,2.7,4.6,5.4,7.5,7.5c0.4-4.9,1.4-9.9,3.5-14.4c3-6.2,8.5-10.4,13.1-15.3
		c-1.7-9.6-5.9-19-12.7-26.1C32.4,80.8,18.2,75,4.1,76.2 M200,102c-2.2,4.9-4.8,10.1-4.5,15.5c4.1,4.3,8.7,8.3,11.7,13.5
		c2.6,4.5,3.4,9.7,4.4,14.8c0.5-0.1,1.4-0.2,1.9-0.3c2.6-3.1,5.3-6.1,7.9-9.2c13.5-17.2,22.3-38.3,24.3-60.2
		C227,74.4,208.2,85.3,200,102 M89.2,130.1c3.5,3.1,7.8,6.7,7.5,11.9c0.4,8.5-11.6,13.4-17.8,8.1c-3.5-2.6-3.8-7.3-4.6-11.2
		c-3.6,3.8-6.8,8.1-9.2,12.8c7.7,4.8,17.3,7.9,26.2,4.8c5.9-1.8,10.4-6.3,14.2-10.9c1.2-1.2,1.8-3.2,0.7-4.7
		C102.2,135.2,96.1,131.2,89.2,130.1 M143.7,140.7c-0.8,1.2-0.1,2.8,0.6,3.9c3.9,5.8,9.5,10.6,16.3,12.5c8.4,2.1,16.8-0.8,24.2-4.7
		c-2-5.1-5.5-9.4-9.1-13.4c-0.5,3.8-1.1,8-4.1,10.8c-6.3,6.4-19.2,0.3-18.3-8.6c0.3-4.7,4.2-8,7.4-11
		C153.9,131.1,147.8,135.2,143.7,140.7 M79.5,137.4c-2.5,0.6-2.3,3.6-2.1,5.6c0.7,2.7,4.3,3.4,6.4,2.2c2.2-0.9,2-3.7,1.6-5.6
		C84.5,137.1,81.7,136.9,79.5,137.4 M166.5,137.5c-1.4,1-2.3,2.6-2,4.4c-0.3,4.2,6.5,5.4,8.1,1.6c1.7-1.8,0-3.9-0.4-5.9
		C170.3,137.4,168.4,137.1,166.5,137.5 M130.6,183.3c-3.6-2.8-8.7-2.4-12.3,0.1c-2.7-2.1-5.3-4.4-8.3-5.9c-2.4,0.5-4.5,2.7-5.8,4.7
		c-1.6,5.7-0.8,12.7,3.8,16.9c1.4,1.4,3.6,1.3,5.4,1.1c0.1,1.7,0.2,3.3,0.4,5c1.3-1.8,2.6-3.7,3.8-5.6c2.5-0.5,4.9-2.1,7.5-2
		c2.4,0.4,4.5,1.7,6.8,2.5c1.1,1.7,2.4,3.4,3.6,5c0.1-1.6,0.2-3.2,0.3-4.8c2.3,0,4.9-0.3,6.2-2.5c1.6-2.6,5-4.4,4.7-7.9
		c0.6-4.9-2.4-9.6-6.2-12.4C136.2,176.6,134.3,182.1,130.6,183.3 M121.3,200.5c0.7,1.4,1.4,2.8,2.3,4c2.8,0.9,4.6-1.6,5.4-3.9
		C126.4,200.6,123.8,200.6,121.3,200.5 M116.9,205.2c2.1,2.3,4.7,4.9,8.1,4.3c3.1,0.3,5.4-2,7.1-4.3
		C127.2,207.1,121.8,207.1,116.9,205.2z"/>
	<path class="st2" d="M140.2,182.5c1.2-1.2,3.4,0.7,2,1.9C141,185.7,138.7,183.7,140.2,182.5z"/>
	<path class="st2" d="M108.1,183.2c1.6-0.5,2.2,0,1.7,1.6C108.2,185.4,107.6,184.8,108.1,183.2z"/>
	<path class="st2" d="M142.1,185.4c1.3-1.3,3.7,0.7,2.3,2.1C143.1,188.9,140.5,186.8,142.1,185.4z"/>
	<path class="st2" d="M106.2,186.2c1.4-1.2,3.2,1.3,1.7,2.3C106.4,189.6,104.6,187.2,106.2,186.2z"/>
	<path class="st2" d="M137.4,187.1c1-1.6,3.4,0.3,2.3,1.7C138.7,190.4,136.3,188.5,137.4,187.1z"/>
	<path class="st2" d="M140.6,190.2c1.3-1.6,3.7,0.9,2.1,2.2C141.3,193.7,139.3,191.5,140.6,190.2z"/>
</g>
<g id="_x23_f08820ff">
	<path class="st3" d="M130.6,183.3c3.7-1.2,5.6-6.7,9.8-5.7c3.8,2.8,6.8,7.5,6.2,12.4c0.3,3.4-3,5.3-4.7,7.9
		c-1.3,2.2-3.9,2.4-6.2,2.5c-1.3,0-2.6-0.1-3.9-0.2c-2.3-0.8-4.4-2.1-6.8-2.5c-2.7-0.1-5,1.4-7.5,2c-1.4,0.2-2.8,0.4-4.1,0.6
		c-1.8,0.2-4,0.3-5.4-1.1c-4.6-4.2-5.3-11.2-3.8-16.9c1.4-2,3.4-4.2,5.8-4.7c3.1,1.5,5.7,3.8,8.3,5.9c-0.5,4.8,3.8,7.8,6.7,10.9
		c2.4-2.6,4.5-5.4,6.4-8.3C131.1,185.1,130.9,184.2,130.6,183.3 M140.2,182.5c-1.5,1.2,0.8,3.2,2,1.9
		C143.7,183.2,141.5,181.2,140.2,182.5 M108.1,183.2c-0.5,1.6,0,2.2,1.7,1.6C110.3,183.2,109.8,182.7,108.1,183.2 M142.1,185.4
		c-1.6,1.4,1,3.5,2.3,2.1C145.8,186.1,143.4,184.1,142.1,185.4 M106.2,186.2c-1.6,1,0.2,3.4,1.7,2.3
		C109.4,187.5,107.6,185,106.2,186.2 M137.4,187.1c-1.1,1.4,1.2,3.2,2.3,1.7C140.8,187.4,138.4,185.5,137.4,187.1 M140.6,190.2
		c-1.3,1.3,0.7,3.5,2.1,2.2C144.3,191.1,141.8,188.6,140.6,190.2z"/>
	<path class="st3" d="M121.3,200.5c2.6,0.1,5.2,0.1,7.7,0.2c-0.9,2.3-2.6,4.8-5.4,3.9C122.7,203.2,122,201.8,121.3,200.5z"/>
	<path class="st3" d="M116.9,205.2c4.9,1.9,10.3,1.9,15.2,0c-1.7,2.2-4,4.6-7.1,4.3C121.6,210.1,119.1,207.5,116.9,205.2z"/>
</g>
</svg>
